assets/icons/arrow_right.svg

<svg width="23" height="24" viewBox="0 0 23 24" fill="none" xmlns="http://www.w3.org/2000/svg">
<path fill-rule="evenodd" clip-rule="evenodd" d="M20.0155 12.0029C20.0155 11.5219 19.7695 11.1602 19.501 10.879C19.251 10.6172 18.8574 10.3073 18.4571 9.99202L17.5278 9.25995C16.8472 8.72372 16.2774 8.27486 15.8033 7.99975C15.3263 7.72303 14.74 7.49821 14.132 7.76739C13.5075 8.04391 13.3039 8.64168 13.2212 9.17958C13.1456 9.67164 13.1407 10.3206 13.1405 11.0837H4.6613C4.15504 11.0837 3.74463 11.4941 3.74463 12.0004C3.74463 12.5067 4.15504 12.9171 4.6613 12.9171H13.1405C13.1407 13.6816 13.1455 14.3317 13.2212 14.8244C13.3039 15.3623 13.5075 15.96 14.132 16.2366C14.74 16.5057 15.3263 16.2809 15.8033 16.0042C16.2774 15.7291 16.8472 15.2802 17.5278 14.744L18.4571 14.0119C18.8574 13.6966 19.251 13.3867 19.501 13.1249C19.7695 12.8438 20.0155 12.4839 20.0155 12.0029Z" fill="white"/>
</svg>

<svg xmlns="http://www.w3.org/2000/svg" width="23" height="24" fill="none" viewBox="0 0 23 24"><path fill="#fff" fill-rule="evenodd" d="M20.016 12.003c0-.481-.246-.843-.515-1.124-.25-.262-.644-.572-1.044-.887l-.93-.732c-.68-.536-1.25-.985-1.724-1.26-.477-.277-1.063-.502-1.671-.233-.624.277-.828.875-.91 1.413-.076.492-.081 1.14-.082 1.904H4.662a.917.917 0 0 0 0 1.833h8.48c0 .765.005 1.415.08 1.907.083.538.287 1.136.911 1.413.608.269 1.194.044 1.671-.233.474-.275 1.044-.724 1.725-1.26l.93-.732c.4-.315.793-.625 1.043-.887.268-.281.514-.641.514-1.122" clip-rule="evenodd"/></svg>
